X:86
T:Sands of Kuwait, The 
C:Joe Buchanan's Scottish Tome - Page 070.0
I:070 0
R:Jig
Z:Carl Allison
L:1/8
M:6/8
K:A=G
A | f>ed A3  | A<Aa f3 | e2 d G3 | G d2 A2 A |
f>ed A3 | A<Aa f3  | e2 d d2 B | d>ef e2 e |
f>ed A3 | A<Aa f3 | e2 d G3 | B2 d A2 A |
A>Bc d2 B | d>ef e2 A | f>ed d2 d |  e>dc d2 A |]
f>ed a3 | A<Aa f3 | e2 d G3 | B d2 A3 |
f>ed a2 a | A>da f3 | e2 d e2 B | d>ef e2 e |
f>ed a2 A | A>da f3 | e2 d G2 | B d2 A2 A |
A>Bc d2 B | d>ef e2 A | f>ed d2 d | e>dc d3 |]

